img/development.svg

<svg width="92" height="92" viewBox="0 0 92 92" fill="none" xmlns="http://www.w3.org/2000/svg">
<circle cx="46" cy="46" r="45" stroke="#EBC317" stroke-width="2"/>
<path d="M62.7343 51.1875C62.2833 51.1875 61.8399 51.2209 61.4062 51.2844V32.5937H53.4063V26.5937H44.4063V20H29.5938V26.5937H25.5938V68H61.4062V67.9982C66.3817 67.9227 70.4062 63.8526 70.4062 58.8595V51.1875H62.7343ZM67.5938 58.8594C67.5938 62.3487 64.755 65.1875 61.2657 65.1875H58.7396L64.1611 59.4215L62.1724 57.4328L58.6581 60.9471C58.4609 59.629 57.9119 58.4248 57.1109 57.4318C58.1638 55.3959 60.2885 54.0001 62.7343 54.0001H67.5938V58.8594ZM28.4062 29.4062H50.5938V54.6875H45.4271V60.6485C45.4271 62.3607 46.0171 63.9366 47.0022 65.1875H28.4062V29.4062ZM41.5938 22.8125V26.5937H32.4063V22.8125H41.5938ZM58.5938 52.1804C57.0753 52.9553 55.8007 54.1421 54.9185 55.5928C54.4439 55.3318 53.937 55.1232 53.4063 54.9715V35.4062H58.5938V52.1804ZM48.2395 60.6485V57.5H51.388C53.8908 57.5 55.927 59.5362 55.927 62.039V65.1875H52.7785C50.2758 65.1875 48.2395 63.1513 48.2395 60.6485Z" fill="#EBC317"/>
<path d="M34.0938 34.2969H36.9063V40.2969H34.0938V34.2969Z" fill="#EBC317"/>
<path d="M42.0938 34.2969H44.9062V40.2969H42.0938V34.2969Z" fill="#EBC317"/>
<path d="M34.0938 44.2969H36.9063V50.2969H34.0938V44.2969Z" fill="#EBC317"/>
<path d="M42.0938 44.2969H44.9062V50.2969H42.0938V44.2969Z" fill="#EBC317"/>
<path d="M34.0938 54.2969H36.9063V60.2969H34.0938V54.2969Z" fill="#EBC317"/>
</svg>

<svg width="92" height="92" fill="none" xmlns="http://www.w3.org/2000/svg"><circle cx="46" cy="46" r="45" stroke="#EBC317" stroke-width="2"/><path d="M62.734 51.188c-.45 0-.894.033-1.328.096v-18.69h-8v-6h-9V20H29.594v6.594h-4V68h35.812v-.002c4.976-.075 9-4.145 9-9.139v-7.672h-7.672zm4.86 7.671a6.335 6.335 0 0 1-6.328 6.328H58.74l5.421-5.765-1.989-1.99-3.514 3.515a7.32 7.32 0 0 0-1.547-3.515A6.333 6.333 0 0 1 62.734 54h4.86v4.86zM28.406 29.406h22.188v25.282h-5.167v5.96c0 1.713.59 3.289 1.575 4.54H28.406V29.406zm13.188-6.593v3.78h-9.188v-3.78h9.188zm17 29.367a9.207 9.207 0 0 0-3.675 3.413 7.3 7.3 0 0 0-1.513-.622V35.406h5.188V52.18zm-10.355 8.468V57.5h3.149a4.544 4.544 0 0 1 4.539 4.539v3.148h-3.148a4.544 4.544 0 0 1-4.54-4.538z" fill="#EBC317"/><path d="M34.094 34.297h2.812v6h-2.812v-6zM42.094 34.297h2.812v6h-2.812v-6zM34.094 44.297h2.812v6h-2.812v-6zM42.094 44.297h2.812v6h-2.812v-6zM34.094 54.297h2.812v6h-2.812v-6z" fill="#EBC317"/></svg>
